img/kettle.svg

<?xml version="1.0" encoding="UTF-8"?>
<svg width="41px" height="48px" viewBox="0 0 41 48" version="1.1" xmlns="http://www.w3.org/2000/svg" xmlns:xlink="http://www.w3.org/1999/xlink">
    <!-- Generator: Sketch 51.2 (57519) - http://www.bohemiancoding.com/sketch -->
    <title>kettle</title>
    <desc>Created with Sketch.</desc>
    <defs></defs>
    <g id="Events" stroke="none" stroke-width="1" fill="none" fill-rule="evenodd">
        <g id="Assets" transform="translate(-350.000000, -325.000000)">
            <g id="Icons-/-Teapot" transform="translate(344.000000, 323.000000)">
                <g id="Icon" fill="#D8D8D8" fill-opacity="0">
                    <circle id="Oval" cx="26" cy="26" r="26"></circle>
                </g>
                <g id="hot-kettle" transform="translate(6.000000, 2.000000)" fill="#333333" fill-rule="nonzero">
                    <path d="M10.901888,5.038464 C11.693696,4.05056 12.003328,2.51648 11.655168,1.307776 C11.498624,0.764288 11.812352,0.196864 12.355712,0.04032 C12.8992,-0.116224 13.466624,0.197376 13.623168,0.740864 C14.152704,2.578688 13.701248,4.82048 12.499968,6.31936 C11.405696,7.684608 11.121024,10.087424 12.377728,11.259904 C12.791168,11.645696 12.813696,12.293632 12.428032,12.7072 C12.226432,12.923392 11.953024,13.032704 11.678976,13.032704 C11.428864,13.032704 11.178112,12.941568 10.980736,12.757504 C8.835968,10.756736 9.208448,7.150976 10.901888,5.038464 Z M17.633024,6.227456 L24.367616,6.227456 C24.93312,6.227456 25.391616,5.76896 25.391616,5.203456 C25.391616,4.637952 24.93312,4.179456 24.367616,4.179456 L17.633024,4.179456 C17.06752,4.179456 16.609024,4.637952 16.609024,5.203456 C16.609024,5.76896 17.06752,6.227456 17.633024,6.227456 Z M40.467328,16.030976 L40.467328,24.22848 C40.467328,28.32256 37.396352,31.713024 33.437184,32.217856 L33.437184,41.363328 L34.459008,41.363328 C35.024512,41.363328 35.483008,41.821824 35.483008,42.387328 L35.483008,46.935552 C35.483008,47.501056 35.024512,47.959552 34.459008,47.959552 L1.092096,47.959552 C0.526592,47.959552 0.068096,47.501056 0.068096,46.935552 L0.068096,42.3872 C0.068096,41.821696 0.526592,41.3632 1.092096,41.3632 L1.942656,41.3632 C1.540224,32.53248 2.409344,22.609536 5.901824,19.31456 L0.264704,11.586176 C0.13696,11.410944 0.068096,11.199616 0.068096,10.982784 L0.068096,9.000832 C0.068096,8.729216 0.176,8.468736 0.368,8.276736 C0.560128,8.084736 0.82048,7.976832 1.092096,7.976832 L5.330944,7.97696 C5.517056,6.89472 5.969152,5.85856 6.62656,5.038464 C7.418368,4.05056 7.728,2.51648 7.379584,1.307904 C7.222912,0.764544 7.53664,0.196992 8.08,0.04032 C8.623488,-0.116352 9.19104,0.197248 9.347456,0.740608 C9.877376,2.578304 9.42592,4.820224 8.22464,6.319232 C7.66912,7.012224 7.32224,7.972864 7.279872,8.904064 C7.282816,8.935936 7.284352,8.968192 7.284352,9.00096 C7.284352,9.0464 7.281408,9.091328 7.275648,9.135232 C7.283584,9.954816 7.536896,10.732032 8.102528,11.259904 C8.515968,11.645824 8.538368,12.29376 8.152576,12.7072 C7.766784,13.12064 7.118976,13.143296 6.70528,12.757248 C5.961216,12.062848 5.481728,11.11616 5.308544,10.02496 L2.116224,10.02496 L2.116224,10.649088 L8.143488,18.91264 C8.160128,18.934912 8.176128,18.957952 8.191232,18.981888 C8.256384,19.084672 8.301056,19.195264 8.326144,19.308544 C8.359168,19.457408 8.357632,19.6096 8.32512,19.75424 C8.324992,19.75424 8.324992,19.754368 8.324992,19.754368 C8.324864,19.75488 8.324736,19.755392 8.324608,19.756032 C8.291456,19.902592 8.226176,20.042368 8.130432,20.163712 C8.05952,20.253568 7.972608,20.332928 7.870976,20.396672 C7.84768,20.411392 7.824,20.425088 7.799808,20.437632 C6.545152,21.124992 5.42784,23.574912 4.7328,27.164032 C3.991168,30.993792 3.736192,35.896576 3.992832,41.363456 L31.389312,41.363456 L31.389312,31.258752 C31.389312,30.693248 31.847808,30.234752 32.413312,30.234752 C35.725056,30.234752 38.419456,27.54048 38.419456,24.228736 L38.419456,16.031232 C38.419456,12.71936 35.725056,10.025088 32.413312,10.025088 L25.391872,10.025088 L25.391872,32.194048 C25.391872,33.980928 23.93792,35.434752 22.150784,35.434752 C20.363392,35.434752 18.909824,33.980928 18.909824,32.194048 L18.909824,13.057024 C18.909824,12.49152 19.36832,12.033024 19.933824,12.033024 C20.499328,12.033024 20.957824,12.49152 20.957824,13.057024 L20.957824,32.193792 C20.957824,32.851456 21.492864,33.386496 22.150272,33.386496 C22.808704,33.386496 23.343872,32.851456 23.343872,32.193792 L23.343872,10.024832 L14.503424,10.02496 L14.503424,7.97696 L32.41344,7.976832 C36.854144,7.976832 40.467328,11.589888 40.467328,16.030976 Z M33.435136,43.4112 L2.116096,43.4112 L2.116096,45.911424 L33.435136,45.911424 L33.435136,43.4112 Z M32.413184,26.33408 C32.978688,26.33408 33.437184,25.875584 33.437184,25.31008 L33.437184,14.94912 C33.437184,14.383616 32.978688,13.92512 32.413184,13.92512 C31.84768,13.92512 31.389184,14.383616 31.389184,14.94912 L31.389184,25.31008 C31.389184,25.875712 31.84768,26.33408 32.413184,26.33408 Z" id="Shape"></path>
                </g>
            </g>
        </g>
    </g>
</svg>

<?xml version="1.0" encoding="UTF-8"?><svg width="41" height="48" viewBox="0 0 41 48" xmlns="http://www.w3.org/2000/svg"><g fill="none" fill-rule="evenodd"><circle cx="26" cy="26" r="26" fill="none" fill-opacity="0" transform="translate(-6 -2)"/><path d="M10.9 5.04c.8-.99 1.1-2.52.76-3.73a1.02 1.02 0 011.96-.57 6.45 6.45 0 01-1.12 5.58c-1.1 1.36-1.38 3.77-.12 4.94a1.02 1.02 0 01-1.4 1.5c-2.14-2-1.77-5.6-.08-7.72zm6.73 1.19h6.74a1.02 1.02 0 000-2.05h-6.74a1.02 1.02 0 000 2.05zm22.84 9.8v8.2c0 4.1-3.07 7.48-7.03 7.99v9.14h1.02c.56 0 1.02.46 1.02 1.03v4.55c0 .56-.46 1.02-1.02 1.02H1.09c-.56 0-1.02-.46-1.02-1.02v-4.55c0-.57.46-1.03 1.02-1.03h.85c-.4-8.83.47-18.75 3.96-22.05L.26 11.6c-.12-.18-.2-.39-.2-.6V9A1.02 1.02 0 011.1 7.98h4.24a6.5 6.5 0 011.3-2.94c.79-.99 1.1-2.52.75-3.73A1.02 1.02 0 019.35.74a6.45 6.45 0 01-1.13 5.58 4.58 4.58 0 00-.94 2.82c0 .81.26 1.6.82 2.12a1.02 1.02 0 01-1.4 1.5 4.68 4.68 0 01-1.4-2.74H2.13v.63l6.02 8.26a1.07 1.07 0 01.19.4 1.02 1.02 0 01-.53 1.13c-1.25.68-2.37 3.13-3.07 6.72C4 31 3.73 35.9 4 41.36h27.4v-10.1c0-.57.46-1.03 1.02-1.03 3.32 0 6-2.69 6-6v-8.2c0-3.31-2.68-6-6-6H25.4v22.16a3.24 3.24 0 01-6.48 0V13.06a1.02 1.02 0 012.05 0v19.13a1.2 1.2 0 002.38 0V10.02H14.5V7.98h17.91a8.06 8.06 0 018.06 8.05zm-7.03 27.38H2.12v2.5h31.32v-2.5zM32.4 26.33c.57 0 1.03-.45 1.03-1.02V14.95a1.02 1.02 0 00-2.05 0V25.3c0 .57.46 1.02 1.02 1.02z" fill="#333" fill-rule="nonzero"/></g></svg>
